assets/Knocked-out face/Flat/knocked-out_face_flat.svg

<svg width="32" height="32" viewBox="0 0 32 32" fill="none" xmlns="http://www.w3.org/2000/svg">
<path d="M15.9989 29.9978C25.3333 29.9978 29.9978 23.7303 29.9978 15.9989C29.9978 8.26751 25.3333 2 15.9989 2C6.66443 2 2 8.26751 2 15.9989C2 23.7303 6.66443 29.9978 15.9989 29.9978Z" fill="#FFB02E"/>
<path d="M7.29289 9.29289C7.68342 8.90237 8.31658 8.90237 8.70711 9.29289L10.5 11.0858L12.2929 9.29289C12.6834 8.90237 13.3166 8.90237 13.7071 9.29289C14.0976 9.68342 14.0976 10.3166 13.7071 10.7071L11.9142 12.5L13.7071 14.2929C14.0976 14.6834 14.0976 15.3166 13.7071 15.7071C13.3166 16.0976 12.6834 16.0976 12.2929 15.7071L10.5 13.9142L8.70711 15.7071C8.31658 16.0976 7.68342 16.0976 7.29289 15.7071C6.90237 15.3166 6.90237 14.6834 7.29289 14.2929L9.08579 12.5L7.29289 10.7071C6.90237 10.3166 6.90237 9.68342 7.29289 9.29289Z" fill="#402A32"/>
<path d="M23.2929 9.29289C23.6834 8.90237 24.3166 8.90237 24.7071 9.29289C25.0976 9.68342 25.0976 10.3166 24.7071 10.7071L22.9142 12.5L24.7071 14.2929C25.0976 14.6834 25.0976 15.3166 24.7071 15.7071C24.3166 16.0976 23.6834 16.0976 23.2929 15.7071L21.5 13.9142L19.7071 15.7071C19.3166 16.0976 18.6834 16.0976 18.2929 15.7071C17.9024 15.3166 17.9024 14.6834 18.2929 14.2929L20.0858 12.5L18.2929 10.7071C17.9024 10.3166 17.9024 9.68342 18.2929 9.29289C18.6834 8.90237 19.3166 8.90237 19.7071 9.29289L21.5 11.0858L23.2929 9.29289Z" fill="#402A32"/>
<path d="M12 23C12 20.7909 13.7909 19 16 19C18.2091 19 20 20.7909 20 23C20 25.2091 18.2091 27 16 27C13.7909 27 12 25.2091 12 23Z" fill="#BB1D80"/>
</svg>

<svg xmlns="http://www.w3.org/2000/svg" width="32" height="32" fill="none"><path fill="#FFB02E" d="M15.999 29.998c9.334 0 13.999-6.268 13.999-14 0-7.73-4.665-13.998-14-13.998C6.665 2 2 8.268 2 15.999c0 7.731 4.664 13.999 13.999 13.999Z"/><path fill="#402A32" d="M7.293 9.293a1 1 0 0 1 1.414 0l1.793 1.793 1.793-1.793a1 1 0 1 1 1.414 1.414L11.914 12.5l1.793 1.793a1 1 0 0 1-1.414 1.414L10.5 13.914l-1.793 1.793a1 1 0 0 1-1.414-1.414L9.086 12.5l-1.793-1.793a1 1 0 0 1 0-1.414ZM23.293 9.293a1 1 0 1 1 1.414 1.414L22.914 12.5l1.793 1.793a1 1 0 0 1-1.414 1.414L21.5 13.914l-1.793 1.793a1 1 0 0 1-1.414-1.414l1.793-1.793-1.793-1.793a1 1 0 0 1 1.414-1.414l1.793 1.793 1.793-1.793Z"/><path fill="#BB1D80" d="M12 23a4 4 0 1 1 8 0 4 4 0 0 1-8 0Z"/></svg>
